packages/ui-icons/src/Basic/32/Corporate_32.svg

<svg xmlns="http://www.w3.org/2000/svg" viewBox="0 0 40 40"><path d="M34 21V11h-8.09a6 6 0 0 0-11.82 0H6v22h28ZM20 8a4 4 0 0 1 3.87 3h-7.74A4 4 0 0 1 20 8Zm12 23H8V21h8.13a4 4 0 0 0 7.75 0H32Zm0-12H22v1a2 2 0 0 1-4 0v-1H8v-6h24Z"/></svg>

<svg id="Ready" xmlns="http://www.w3.org/2000/svg" viewBox="0 0 40 40"><title>Megaicons_work_32_1.8_cp</title><path d="M34,21V11H25.91a6,6,0,0,0-11.82,0H6V33H34ZM20,8a4,4,0,0,1,3.87,3H16.13A4,4,0,0,1,20,8ZM32,31H8V21h8.13a4,4,0,0,0,7.75,0H32Zm0-12H22v1a2,2,0,0,1-4,0V19H8V13H32Z"/></svg>
